packages/ui-icons/svg/Solid/materials-required-light.svg

<svg viewBox="0 0 1920 1920" version="1.1" xmlns="http://www.w3.org/2000/svg">
    <path d="M1920,1886.76222 L1436.68082,1758.65352 L1072.15334,1394.12605 C1181.62805,1293.96834 1309.73675,1174.01201 1435.5162,1047.06794 L1791.8913,1403.44304 L1920,1886.76222 Z M396.671115,188.739657 L580.681791,372.750333 L407.152736,547.444013 L221.977435,362.268712 L396.671115,188.739657 Z M546.907679,877.032754 C648.230013,764.064175 771.680214,632.461603 902.118161,504.352905 L444.420721,46.6554646 C418.798981,21.033725 375.707873,19.8691005 348.921509,46.6554646 L78.7286182,314.519107 C65.9177484,326.165352 58.9300012,343.63472 58.9300012,362.268712 C58.9300012,379.73808 65.9177484,397.207448 78.7286182,408.853693 L546.907679,877.032754 Z M718.922722,1545.99308 C660.342108,1676.89688 389.217518,1738.27259 213.009827,1760.74985 C241.543128,1687.61143 271.706903,1576.73917 271.706903,1433.9562 C271.706903,1355.69344 327.14303,1273.47094 400.863763,1242.84132 C422.525779,1233.75725 444.88657,1229.21521 467.829674,1229.21521 C527.574912,1229.21521 590.464637,1259.49545 650.675725,1318.07606 C722.765983,1409.61555 745.709086,1486.36431 718.922722,1545.99308 L718.922722,1545.99308 Z M1913.94395,184.896396 C1916.15674,129.110881 1893.56302,94.4050704 1868.29067,69.0162556 C1848.9579,49.6834884 1814.95087,26.7403852 1758.00073,29.3025591 C1437.26313,42.3463539 625.053985,960.303408 491.005702,1114.26677 C445.35242,1110.65644 399.699139,1117.17833 355.909256,1135.34648 C237.816329,1184.72656 155.24445,1307.47798 155.24445,1433.9562 C155.24445,1661.29091 67.5482227,1794.52396 66.849448,1795.68858 L0,1893.16766 L117.976465,1886.64576 C178.420478,1883.38481 711.585588,1846.93206 825.252942,1593.74269 C846.449108,1546.34247 851.107606,1495.79777 840.742448,1442.45796 C1003.09111,1301.07255 1901.48247,504.003518 1913.94395,184.896396 L1913.94395,184.896396 Z" stroke="none" stroke-width="1" fill-rule="evenodd"/>
</svg>

<svg viewBox="0 0 1920 1920" xmlns="http://www.w3.org/2000/svg">
    <path d="m1920 1886.762-483.32-128.108-364.527-364.528c109.475-100.158 237.584-220.114 363.363-347.058l356.375 356.375L1920 1886.763ZM396.671 188.74l184.01 184.01-173.528 174.694-185.176-185.175 174.694-173.53Zm150.237 688.293c101.322-112.969 224.772-244.571 355.21-372.68L444.421 46.655c-25.622-25.621-68.713-26.786-95.5 0L78.73 314.52c-12.811 11.646-19.799 29.116-19.799 47.75 0 17.47 6.988 34.938 19.799 46.585l468.179 468.179Zm172.015 668.96c-58.58 130.904-329.705 192.28-505.913 214.757 28.533-73.139 58.697-184.01 58.697-326.794 0-78.263 55.436-160.485 129.157-191.115 21.662-9.084 44.023-13.626 66.966-13.626 59.745 0 122.635 30.28 182.846 88.861 72.09 91.54 95.033 168.288 68.247 227.917ZM1913.944 184.896c2.213-55.785-20.381-90.49-45.653-115.88-19.333-19.333-53.34-42.276-110.29-39.713-320.738 13.043-1132.947 931-1266.995 1084.964-45.654-3.61-91.307 2.911-135.097 21.08-118.093 49.38-200.665 172.131-200.665 298.61 0 227.334-87.696 360.567-88.395 361.732L0 1893.168l117.976-6.522c60.444-3.261 593.61-39.714 707.277-292.903 21.196-47.4 25.855-97.945 15.49-151.285 162.348-141.385 1060.74-938.454 1073.2-1257.562h.001Z" fill-rule="evenodd"/>
</svg>
